X:1
T:Puisque iay perdu
T:Puisque iay perdu 3v
T:Tielman Susato
T:Source : Le premier livre des Chansons à 3 parties---Anvers---T.Susato---1544. Editor : André Vierendeels (06/02/15).
T:Notes : Original clefs : C1, C3, F3 Original note values have been halved Editorial accidentals above the staff Notice : "Chantez a deux si bon vous samble, puis chanterez tous trois ensamble" Notice above the B voice :" Attens que tu en soys requis" This chanson is probably the "reponce" on the chanson "O combien est" (Susato)
C:Tielman Susato
%%score [ 1 2 3 ]
L:1/8
Q:1/4=81
M:2/2
K:C
V:1 treble nm="Superius" snm="S"
V:2 treble-8 nm="Tenor 1" snm="T 1"
V:3 treble-8 nm="Tenor 2" snm="T 2"
V:1
 z8 | z4 G4 | G2 G2 A2 A2 | c4 B4 | A6 G2 | AB c4 BA | B4 z2 c2 | B2 A2 d3 c | B2 A3 B c2 | %9
w: |Puis-|que iay per- du|mes a-|mours, _|_ _ _ _ _|* iay|bien cau- se _|_ de _ _|
 B2 A3 G FE | D2 G4 F2 | G8- | G8 | z4 G4 | G2 G2 A2 A2 | c4 B4 | A6 G2 | AB c4 BA | B4 z2 c2 | %19
w: sous- pi- * * *||rer,|_|ie|le re- gret- te|tous les|iours, _|_ _ _ _ _|* mais|
 B2 A2 d3 c | B2 A3 G G2- | G2 F2 G3 F | E2 DC D4 | C4 z2 G2 | A2 c4 B2 | A3 G/F/ EF GE | %26
w: rien ny vault le|re- gret- * *|||ter, car-|par me- di|sans _ _ _ _ _ _|
 FE CD EF GA | Bc d3 c c2- | c2 B2 c4 | z2 c2 c2 c2 | G3 A B2 B2 | A2 z A A2 A2 | E3 F G3 F/E/ | %33
w: _ _ _ _ _ _ _ _|* * * * suis|_ ban- ny,|nul ne sen|doibt es- mer- veil-|ler, nul ne sen-|doibt es- mer- * *|
 D2 F2 E4 | D8 | z2 D2 F2 G2 | A2 c2 B2 A2- | AG G4 F2 | G8 | z2 c2 c2 c2 | G3 A B2 B2 | %41
w: * * veil-|ler,|si iay le|cueur tri- st'et _|_ _ _ mar-|ry,|nul ne sen|doibt es- mer- veil-|
 A2 z A A2 A2 | E3 F G3 F/E/ | D2 F2 E4 | D8 | z2 D2 F2 G2 | A2 c2 B2 A2- | AG G4 F2 | G8 |] %49
w: ler, nul ne sen|doibt es- mer- * *|* * veil-|ler,|si iay le|cueur tri- st'et _|_ _ _ mar-|ry.|
V:2
 G4 G2 G2 | A2 A2 c4- | c2 B2 A2 z c | c2 c2 d2 d2 | f6 e2 | d2 c3 dec | d2 z e d2 c2 | %7
w: Puis- que iay|per- du mes|_ a- mours, puis-|que iay per- du|mes a-|mours, _ _ _ _|_ iay bien cau-|
 d3 c BA G2 | d3 e f2 e2 | d3 c A2 d2- | dc B2 A4 | G4 z4 | c4 c2 c2 | d2 d2 e3 d | c2 B2 A2 z c | %15
w: se _ _ _ _|de _ _ sous-|pi- * * *||rer,|ie les re-|gret- te tous _|_ les iours, ie|
 c2 c2 d2 d2 | f6 e2 | d2 c3 def | g2 z e d2 c2 | d3 c BABc | d4 c2 B2 | A4 z2 G2 | A2 c4 B2 | %23
w: les re- gret- te|tous les|iours, _ _ _ _|_ mais rien ny|vault le re- * * *|gret- * *|ter, car|par mes- di-|
 A3 G/F/ EFGE | FGAB c2 z G | A2 c3 ABc | dcAB cdef | g4 f2 e2 | d2 e3 dcB | A4 z2 c2 | %30
w: sans, _ _ _ _ _ _|_ _ _ _ _ car|par me- * * *|di- * * * * * * *|* sans suis|ban- ny, _ _ _|_ nul|
 c2 c2 GABc | d2 d2 A3 G | AB c3 BGA |"^#" Bc d4 c2 | d4 z2 G2 | B3 c d2 e2 | d2 c2 d3 c | %37
w: ne sen doibt _ _ _|_ es- mer- *|* * veil- * * *||ler, si|iay _ _ le|cueur tri- st'et _|
 B2 AG A4 | G4 z2 c2 | c2 c2 ABcd | e4 z2 d2 | d2 d2 A3 B | c2 c2 GFGA |"^#" Bc d4 c2 | d4 z2 D2 | %45
w: _ _ _ mar-|ry, nul|ne sen doibt _ _ _|_ nul|ne sen doibt _|_ es- mer- * * *|* * * veil-|ler, si|
 F2 G2 A2 c2- | c2 A2 d3 c | B2 AG A4 | G8 |] %49
w: iay le cueur tri-|* st'et mar- *||ry.|
V:3
 G4 E2 C2 | F2 F2 C3 D | EF G2 F3 E/D/ | C2 C2 G2 G2 | F3 G AB c2 | F3 G A4 |"^#" G4 z2 A2 | %7
w: Puis- que iay|per- du mes _|_ _ _ a- * *|mours, puis- que iay|per- * * * du|mes _ a-|mours, iay|
 G2 F2 G4- | G2 FE D2 C2 | D3 E F2 D2 | G4 D4 | z2 G2 G2 G2 | E2 C4 c2- | c2 B2 c2 C2 | %14
w: bien _ cau-|* * * se de|sous- * * *|pi- rer,|ie les re-|gret- te tous|_ les iours, ie|
 C2 G2 F3 G | A2 A2 G3 F | DEFG AB c2 | F3 G A2 A2 | G4 z2 A2 | G2 F2 G4 | D3 E F2 G2 | D4 G4 | %22
w: les re- gret- *|* te tous _|_ _ _ _ _ _ _|* * * les|iours, mais|rien ne vault|le _ _ re-|gret- ter,|
 z4 G4 | A2 c4 B2 | A3 G/F/ EFGE | F3 E/D/ C2 G2 | DE F2 E2 C2 | G3 A _B2 c2 | G4 z2 F2 | %29
w: car|par me- di-|sans _ _ _ _ _ _|_ _ _ _ suis|ban- * * * ny,|suis _ _ ban-|ny, nul|
 F2 F2 C4 | C2 E3 F G2 | D2 F2 F2 F2 | C3 D EDEF | G2 D2 A4 | D4 z4 | z2 G2 F2 E2 | F2 A2 G2 F2 | %37
w: ne sen doibt|es- mer- * *|veil- ler, nul ne|sen doibt es- * * *|* mer- veil-|ler,|si iay le|cueeur tri- st'et _|
 G4 D2 D2 | E6 C2- | CD E2 F4 | E2 G2 G2 G2 | D3 E F2 F2 | C3 D EDEF |"^#" G2 F2 G2 A2 | %44
w: mar- ry, tri-|st'et mar-||ry, nul ne sen|doibt _ _ es-|mer- * * * * *|* * * veil-|
 D2 D2 F3 G | A2 B2 c2 C2 | F2 F2 G2 D2 | E4 D4 | G8 |] %49
w: ler, si iay _|_ le cueur tri-|st'et mar- ry, tri-|st'et mar-|ry.|

